assets/icons/solid/bridge-circle-exclamation.svg

<svg xmlns="http://www.w3.org/2000/svg" viewBox="0 0 640 512"><!--! Font Awesome Free 6.6.0 by @fontawesome - https://fontawesome.com License - https://fontawesome.com/license/free (Icons: CC BY 4.0, Fonts: SIL OFL 1.1, Code: MIT License) Copyright 2024 Fonticons, Inc. --><path d="M64 32C46.3 32 32 46.3 32 64s14.3 32 32 32l40 0 0 64-72 0 0 128c53 0 96 43 96 96l0 64c0 17.7 14.3 32 32 32l32 0c17.7 0 32-14.3 32-32l0-64c0-53 43-96 96-96c6.3 0 12.4 .6 18.3 1.7C367.1 231.8 426.9 192 496 192c42.5 0 81.6 15.1 112 40.2l0-72.2-72 0 0-64 40 0c17.7 0 32-14.3 32-32s-14.3-32-32-32L64 32zM488 96l0 64-80 0 0-64 80 0zM360 96l0 64-80 0 0-64 80 0zM232 96l0 64-80 0 0-64 80 0zM496 512a144 144 0 1 0 0-288 144 144 0 1 0 0 288zm0-96a24 24 0 1 1 0 48 24 24 0 1 1 0-48zm0-144c8.8 0 16 7.2 16 16l0 80c0 8.8-7.2 16-16 16s-16-7.2-16-16l0-80c0-8.8 7.2-16 16-16z"/></svg>

<svg xmlns="http://www.w3.org/2000/svg" viewBox="0 0 640 512"><!--! Font Awesome Pro 6.5.1 by @fontawesome - https://fontawesome.com License - https://fontawesome.com/license (Commercial License) Copyright 2023 Fonticons, Inc. --><path d="M64 32C46.3 32 32 46.3 32 64s14.3 32 32 32h40v64H32V288c53 0 96 43 96 96v64c0 17.7 14.3 32 32 32h32c17.7 0 32-14.3 32-32V384c0-53 43-96 96-96c6.3 0 12.4 .6 18.3 1.7C367.1 231.8 426.9 192 496 192c42.5 0 81.6 15.1 112 40.2V160H536V96h40c17.7 0 32-14.3 32-32s-14.3-32-32-32H64zM488 96v64H408V96h80zM360 96v64H280V96h80zM232 96v64H152V96h80zM496 512a144 144 0 1 0 0-288 144 144 0 1 0 0 288zm0-96a24 24 0 1 1 0 48 24 24 0 1 1 0-48zm0-144c8.8 0 16 7.2 16 16v80c0 8.8-7.2 16-16 16s-16-7.2-16-16V288c0-8.8 7.2-16 16-16z"/></svg>
